IMB-X-Files/The-Ambassadors-Assets/660c0a32cf246f8d15ad9c25_Entrepreneur_(magazine)_logo_2012 1.svg

<svg fill="none" height="48" viewBox="0 0 236 48" width="236" xmlns="http://www.w3.org/2000/svg" xmlns:xlink="http://www.w3.org/1999/xlink"><clipPath id="a"><path d="m.018921.923828h235.607v46.349h-235.607z"/></clipPath><g clip-path="url(#a)" fill="#fff"><path d="m.36426 32.3857 2.97855-.476v-27.56704l-3.3238891-.43276.1726691-2.986072h20.80671l-.5181 8.352342-4.144-.12983-.259-5.23644h-6.43196v12.4203h2.80586l.6475-2.8562 2.8922.0865v8.5688h-2.8922l-.6907-2.9428h-2.80583v13.156h6.47513l.6043-5.7125 4.3599.1298.3454 8.6986h-21.152042z"/><path d="m23.3293 35.5029.1295-2.5534 2.3311-.476v-17.3971l-2.7196-.2597v-2.5965l6.8205-.9954.518 1.4714v.9954c1.6403-1.7311 3.626-2.7697 6.1729-2.7697 3.7124 0 6.4751 2.2503 6.4751 6.7078v14.8005l2.4605.4761-.1295 2.5533h-8.1154v-16.5316c0-2.3802-.8634-3.7218-3.0217-3.7218-.7339 0-1.2519.1299-1.8131.3462-.3453.303-.6906.7357-.9928 1.1252v15.8392l2.4605.476-.1727 2.5533h-10.4033z"/><path d="m153.738 35.5029.086-2.5534 2.331-.476v-17.3971l-2.719-.2597v-2.5965l6.82-.9954.518 1.4714v.9954c1.641-1.7311 3.626-2.7697 6.173-2.7697 3.713 0 6.475 2.2503 6.475 6.7078v14.8005l2.461.4761-.13 2.5533h-8.072v-16.5316c0-2.3802-.863-3.7218-3.022-3.7218-.734 0-1.252.1299-1.813.3462-.345.303-.69.7357-.993 1.1252v15.8392l2.461.476-.173 2.5533h-10.403z"/><path d="m58.3812 35.0233c-.9497.3895-2.6332.8222-4.8348.8222-2.8922 0-5.5685-1.2983-5.5685-5.5394v-15.2332l-2.7628-.4328.1296-3.0293 3.108-.1299 1.3382-4.63055 3.9714-.1731v4.97675h4.2736l-.3022 3.0294-3.9282.4327v15.2333c0 1.255.6906 2.0773 1.9856 2.0773h2.3311z"/><path d="m219.957 35.4995.086-2.51 2.202-.5193v-17.3971l-2.59-.2597v-2.5965l7.079-.9954.475 1.6878v.5626c1.856-1.3849 4.36-2.2937 7.382-2.2937l1.036.9088-.734 6.578-3.885-.1298-.389-3.5054c-.906.1298-1.769.3895-2.503.9088v16.5749l2.46.5193-.172 2.51h-10.447z"/><path d="m118.298 35.4995.13-2.51 2.201-.5193v-17.3971l-2.59-.2597v-2.5965l7.08-.9954.474 1.6878v.5626c1.857-1.3849 4.36-2.2937 7.382-2.2937l1.036.9088-.82 6.578-3.885-.1298-.389-3.5054c-.906.1298-1.77.3895-2.503.9088v16.5749l2.46.5193-.172 2.51h-10.404z"/><path d="m60.1078 35.4995.1295-2.51 2.2015-.5193v-17.3971l-2.59-.2597v-2.5965l7.0794-.9954.4748 1.6878v.5626c1.8562-1.3849 4.3599-2.2937 7.3385-2.2937l1.036.9088-.7338 6.578-3.8851-.1298-.3885-3.5054c-.9065.1298-1.7699.3895-2.5037.9088v16.5749l2.4605.5193-.1726 2.51h-10.4465z"/><path d="m82.4689 24.898c0 4.1545 1.813 7.357 5.3959 7.357 1.8562 0 3.3239-.3895 5.0506-1.2117l.9928 2.2936c-1.7699 1.4281-4.3599 2.51-7.5974 2.51-6.3025 0-9.9285-5.4528-9.9285-12.4636 0-5.9721 2.6332-12.5068 9.8421-12.5068 6.3025 0 8.6767 5.8423 8.6767 12.3337l-.6044 1.558zm-.0864-2.7697 7.2521-.3462c-.1295-2.8995-.7338-7.4868-3.5828-7.4868-.6907 0-1.1656.1298-2.0289.5626-1.1655 1.9907-1.6404 5.5826-1.6404 7.2704z"/><path d="m182.79 24.898c0 4.1545 1.813 7.357 5.396 7.357 1.856 0 3.324-.3895 5.05-1.2117l.993 2.2936c-1.77 1.4281-4.36 2.51-7.597 2.51-6.303 0-9.929-5.4528-9.929-12.4636 0-5.9721 2.633-12.5068 9.842-12.5068 6.303 0 8.677 5.8423 8.677 12.3337l-.604 1.558zm-.087-2.7697 7.253-.3462c-.13-2.8995-.734-7.4868-3.583-7.4868-.691 0-1.166.1298-2.029.5626-1.166 1.9907-1.641 5.5826-1.641 7.2704z"/><path d="m140.658 24.898c0 4.1545 1.813 7.357 5.396 7.357 1.856 0 3.324-.3895 5.05-1.2117l.993 2.2936c-1.77 1.4281-4.36 2.51-7.597 2.51-6.303 0-9.929-5.4528-9.929-12.4636 0-5.9721 2.633-12.5068 9.842-12.5068 6.303 0 8.677 5.8423 8.677 12.3337l-.604 1.558zm-.086-2.7697 7.252-.3462c-.13-2.8995-.734-7.4868-3.583-7.4868-.691 0-1.166.1298-2.029.5626-1.166 1.9907-1.684 5.5826-1.64 7.2704z"/><path d="m211.539 35.5015-.604-2.0773c-1.597 1.5147-3.151 2.4235-5.569 2.4235-3.712 0-7.036-1.8609-7.036-7.0108v-14.3677l-2.72-.2597v-2.2936l7.857-.9088.604 2.0772v15.0602c0 2.6399 1.079 4.0247 3.195 4.0247.604 0 1.381-.0865 2.072-.3462.388-.3895.777-.8655 1.079-1.3416v-16.0122l-2.806-.2597v-2.2936l7.943-.9088.604 2.0772v19.3879l2.461.476-.302 2.5533z"/><path d="m106.685 32.387c-1.252 0-2.244-.2164-3.021-.6492v-15.2765c.345-.5194.733-.9954 1.122-1.4282.734-.2596 1.381-.3462 2.158-.3462 3.238 0 3.799 3.289 3.799 9.1746 0 5.6692-.863 7.2272-1.079 7.8763-.907.4328-1.856.6492-2.979.6492zm9.67-9.5641c0-7.3137-2.159-11.901-7.555-11.901-3.582 0-5.266 2.0772-5.957 2.9428v-.8223l-.604-2.0772-7.0363.9953v2.51l2.7195.3462v29.5145l-2.331.4761-.1295 2.4667h10.4033l.173-2.4667-2.461-.4761v-9.3477c.993.5626 2.374.9088 3.885.9088 8.806 0 8.893-8.9582 8.893-13.0694z"/></g></svg>

<svg width="236" height="48" viewBox="0 0 236 48" fill="none" xmlns="http://www.w3.org/2000/svg">
    <g clip-path="url(#clip0_2534_13353)">
        <path
            d="M0.36426 32.3857L3.34281 31.9097V4.34266L0.0189209 3.9099L0.19159 0.923828H20.9983L20.4802 9.27617L16.3362 9.14634L16.0772 3.9099H9.64524V16.3302H12.4511L13.0986 13.474L15.9908 13.5605V22.1293H13.0986L12.4079 19.1865H9.60207V32.3425H16.0772L16.6815 26.63L21.0414 26.7598L21.3868 35.4584H0.234758L0.36426 32.3857Z"
            fill="white" />
        <path
            d="M23.3293 35.5029L23.4588 32.9495L25.7899 32.4735V15.0764L23.0703 14.8167V12.2202L29.8908 11.2248L30.4088 12.6962V13.6916C32.0491 11.9605 34.0348 10.9219 36.5817 10.9219C40.2941 10.9219 43.0568 13.1722 43.0568 17.6297V32.4302L45.5173 32.9063L45.3878 35.4596H37.2724V18.928C37.2724 16.5478 36.409 15.2062 34.2507 15.2062C33.5168 15.2062 32.9988 15.3361 32.4376 15.5524C32.0923 15.8554 31.747 16.2881 31.4448 16.6776V32.5168L33.9053 32.9928L33.7326 35.5461H23.3293V35.5029Z"
            fill="white" />
        <path
            d="M153.738 35.5029L153.824 32.9495L156.155 32.4735V15.0764L153.436 14.8167V12.2202L160.256 11.2248L160.774 12.6962V13.6916C162.415 11.9605 164.4 10.9219 166.947 10.9219C170.66 10.9219 173.422 13.1722 173.422 17.6297V32.4302L175.883 32.9063L175.753 35.4596H167.681V18.928C167.681 16.5478 166.818 15.2062 164.659 15.2062C163.925 15.2062 163.407 15.3361 162.846 15.5524C162.501 15.8554 162.156 16.2881 161.853 16.6776V32.5168L164.314 32.9928L164.141 35.5461H153.738V35.5029Z"
            fill="white" />
        <path
            d="M58.3812 35.0233C57.4315 35.4128 55.748 35.8455 53.5464 35.8455C50.6542 35.8455 47.9779 34.5472 47.9779 30.3061V15.0729L45.2151 14.6401L45.3447 11.6108L48.4527 11.4809L49.7909 6.85035L53.7623 6.67725V11.654H58.0359L57.7337 14.6834L53.8055 15.1161V30.3494C53.8055 31.6044 54.4961 32.4267 55.7911 32.4267H58.1222L58.3812 35.0233Z"
            fill="white" />
        <path
            d="M219.957 35.4995L220.043 32.9895L222.245 32.4702V15.0731L219.655 14.8134V12.2169L226.734 11.2215L227.209 12.9093V13.4719C229.065 12.087 231.569 11.1782 234.591 11.1782L235.627 12.087L234.893 18.665L231.008 18.5352L230.619 15.0298C229.713 15.1596 228.85 15.4193 228.116 15.9386V32.5135L230.576 33.0328L230.404 35.5428H219.957V35.4995Z"
            fill="white" />
        <path
            d="M118.298 35.4995L118.428 32.9895L120.629 32.4702V15.0731L118.039 14.8134V12.2169L125.119 11.2215L125.593 12.9093V13.4719C127.45 12.087 129.953 11.1782 132.975 11.1782L134.011 12.087L133.191 18.665L129.306 18.5352L128.917 15.0298C128.011 15.1596 127.147 15.4193 126.414 15.9386V32.5135L128.874 33.0328L128.702 35.5428H118.298V35.4995Z"
            fill="white" />
        <path
            d="M60.1078 35.4995L60.2373 32.9895L62.4388 32.4702V15.0731L59.8488 14.8134V12.2169L66.9282 11.2215L67.403 12.9093V13.4719C69.2592 12.087 71.7629 11.1782 74.7415 11.1782L75.7775 12.087L75.0437 18.665L71.1586 18.5352L70.7701 15.0298C69.8636 15.1596 69.0002 15.4193 68.2664 15.9386V32.5135L70.7269 33.0328L70.5543 35.5428H60.1078V35.4995Z"
            fill="white" />
        <path
            d="M82.4689 24.898C82.4689 29.0525 84.2819 32.255 87.8648 32.255C89.721 32.255 91.1887 31.8655 92.9154 31.0433L93.9082 33.3369C92.1383 34.765 89.5483 35.8469 86.3108 35.8469C80.0083 35.8469 76.3823 30.3941 76.3823 23.3833C76.3823 17.4112 79.0155 10.8765 86.2244 10.8765C92.5269 10.8765 94.9011 16.7188 94.9011 23.2102L94.2967 24.7682L82.4689 24.898ZM82.3825 22.1283L89.6346 21.7821C89.5051 18.8826 88.9008 14.2953 86.0518 14.2953C85.3611 14.2953 84.8862 14.4251 84.0229 14.8579C82.8574 16.8486 82.3825 20.4405 82.3825 22.1283Z"
            fill="white" />
        <path
            d="M182.79 24.898C182.79 29.0525 184.603 32.255 188.186 32.255C190.042 32.255 191.51 31.8655 193.236 31.0433L194.229 33.3369C192.459 34.765 189.869 35.8469 186.632 35.8469C180.329 35.8469 176.703 30.3941 176.703 23.3833C176.703 17.4112 179.336 10.8765 186.545 10.8765C192.848 10.8765 195.222 16.7188 195.222 23.2102L194.618 24.7682L182.79 24.898ZM182.703 22.1283L189.956 21.7821C189.826 18.8826 189.222 14.2953 186.373 14.2953C185.682 14.2953 185.207 14.4251 184.344 14.8579C183.178 16.8486 182.703 20.4405 182.703 22.1283Z"
            fill="white" />
        <path
            d="M140.658 24.898C140.658 29.0525 142.471 32.255 146.054 32.255C147.91 32.255 149.378 31.8655 151.104 31.0433L152.097 33.3369C150.327 34.765 147.737 35.8469 144.5 35.8469C138.197 35.8469 134.571 30.3941 134.571 23.3833C134.571 17.4112 137.204 10.8765 144.413 10.8765C150.716 10.8765 153.09 16.7188 153.09 23.2102L152.486 24.7682L140.658 24.898ZM140.572 22.1283L147.824 21.7821C147.694 18.8826 147.09 14.2953 144.241 14.2953C143.55 14.2953 143.075 14.4251 142.212 14.8579C141.046 16.8486 140.528 20.4405 140.572 22.1283Z"
            fill="white" />
        <path
            d="M211.539 35.5015L210.935 33.4242C209.338 34.9389 207.784 35.8477 205.366 35.8477C201.654 35.8477 198.33 33.9868 198.33 28.8369V14.4692L195.61 14.2095V11.9159L203.467 11.0071L204.071 13.0843V28.1445C204.071 30.7844 205.15 32.1692 207.266 32.1692C207.87 32.1692 208.647 32.0827 209.338 31.823C209.726 31.4335 210.115 30.9575 210.417 30.4814V14.4692L207.611 14.2095V11.9159L215.554 11.0071L216.158 13.0843V32.4722L218.619 32.9482L218.317 35.5015H211.539Z"
            fill="white" />
        <path
            d="M106.685 32.387C105.433 32.387 104.441 32.1706 103.664 31.7378V16.4613C104.009 15.9419 104.397 15.4659 104.786 15.0331C105.52 14.7735 106.167 14.6869 106.944 14.6869C110.182 14.6869 110.743 17.9759 110.743 23.8615C110.743 29.5307 109.88 31.0887 109.664 31.7378C108.757 32.1706 107.808 32.387 106.685 32.387ZM116.355 22.8229C116.355 15.5092 114.196 10.9219 108.8 10.9219C105.218 10.9219 103.534 12.9991 102.843 13.8647V13.0424L102.239 10.9652L95.2027 11.9605V14.4705L97.9222 14.8167V44.3312L95.5912 44.8073L95.4617 47.274H105.865L106.038 44.8073L103.577 44.3312V34.9835C104.57 35.5461 105.951 35.8923 107.462 35.8923C116.268 35.8923 116.355 26.9341 116.355 22.8229Z"
            fill="white" />
    </g>
    <defs>
        <clipPath id="clip0_2534_13353">
            <rect width="235.607" height="46.349" fill="white" transform="translate(0.0189209 0.923828)" />
        </clipPath>
    </defs>
</svg>
